X:65
T:Scullion Peasant. LIT.065, The
M:6/8
Q:3/8=100
L:1/8
B:Wm. Litten MS, 1802
Z:Village Music Project 2017 Anne Wride
K:D
f2f efg | afd cAA | FAd GBd | efg e3 |
f2 f efg | afd c2A | FAd Bgf | edc d3 :|
|: afd ecA | afd ecA | afd Bgf | efd cBA |
afd ecA | afd ecA | afd Bgf | edc d3 :|

